svg/set/MOM/U.svg

<?xml version="1.0" encoding="UTF-8" standalone="no"?>
<!-- Generator: Adobe Illustrator 15.1.0, SVG Export Plug-In . SVG Version: 6.00 Build 0)  -->

<svg
   version="1.1"
   id="Layer_1"
   x="0px"
   y="0px"
   width="149.99899"
   height="110.09219"
   viewBox="0 0 149.99899 110.09219"
   enable-background="new 0 0 156 116"
   xml:space="preserve"
   xmlns="http://www.w3.org/2000/svg"
   xmlns:svg="http://www.w3.org/2000/svg"><defs
   id="defs17" />
<g
   id="g17"
   transform="translate(-3.131,-1.523)">
	<path
   fill="#010101"
   d="M 62.439,24.478 77.11,1.705 c 5.831,0.209 11.666,1.344 17.276,3.45 l -7.427,19.02 C 78.932,21.234 70.193,21.436 62.439,24.478 Z M 43.633,83.902 47.832,77.905 C 42.87,71.547 40.353,63.697 40.538,55.805 L 24.159,77.33 c 2.459,6.071 6.021,11.746 10.627,16.701 l 3.01,-12.737 z m 11.633,1.056 c -1.785,-1.25 -3.408,-2.645 -4.881,-4.146 l -5.454,7.79 -4.522,-2.023 -2.462,10.591 c 1.75,1.601 3.622,3.106 5.617,4.503 4.632,3.243 9.589,5.672 14.703,7.317 l -0.33,-22.344 c -0.906,-0.52 -1.799,-1.078 -2.671,-1.688 z M 98.358,6.83 90.865,25.891 c 1.386,0.713 2.742,1.519 4.054,2.437 4.646,3.253 8.236,7.444 10.716,12.136 l 8.874,-0.532 8.584,-10.102 c -3.917,-7.023 -9.44,-13.294 -16.47,-18.216 -2.658,-1.862 -5.424,-3.453 -8.265,-4.784 z m -36.072,81.916 0.308,21.439 c 16.467,3.839 34.03,-0.13 47.271,-10.951 L 92.059,86.767 c -8.996,5.057 -19.974,5.898 -29.773,1.979 z m 45.027,-44.624 c 2.18,5.624 2.863,11.76 1.947,17.764 l 17.869,12.512 c 4.623,-13.525 3.709,-28.226 -2.181,-40.928 l -8.61,10.111 z m -54.238,31.788 0.559,-18.015 14.229,9.963 7.565,3.004 47.647,33.363 30.055,7.061 L 136.216,85.459 88.569,52.096 83.16,46.014 68.93,36.05 85.667,29.363 57.223,25.907 72.786,1.726 c -4.681,0.2 -9.321,0.993 -13.801,2.362 L 45.883,24.877 40.211,23.445 39.906,23.367 18.437,8.335 16.128,1.523 3.409,6.449 3.131,20.087 l 7.19,-0.16 21.468,15.032 0.177,0.261 3.286,4.839 -15.048,19.49 c 0.25,4.655 1.09,9.262 2.496,13.707 L 40.099,50.363 Z"
   id="path1" />
	<linearGradient
   id="SVGID_1_"
   gradientUnits="userSpaceOnUse"
   x1="43.0308"
   y1="97.141602"
   x2="109.4144"
   y2="18.0287">
		<stop
   offset="0"
   style="stop-color:#626F78"
   id="stop1" />
		<stop
   offset="0.0061"
   style="stop-color:#69767F"
   id="stop2" />
		<stop
   offset="0.03"
   style="stop-color:#7E8E99"
   id="stop3" />
		<stop
   offset="0.0539"
   style="stop-color:#90A3AE"
   id="stop4" />
		<stop
   offset="0.0773"
   style="stop-color:#9BB1BD"
   id="stop5" />
		<stop
   offset="0.1"
   style="stop-color:#A0B7C2"
   id="stop6" />
		<stop
   offset="0.2111"
   style="stop-color:#ACC5D2"
   id="stop7" />
		<stop
   offset="0.3397"
   style="stop-color:#B5CEDD"
   id="stop8" />
		<stop
   offset="0.5"
   style="stop-color:#B7D1E1"
   id="stop9" />
		<stop
   offset="0.6603"
   style="stop-color:#B5CEDD"
   id="stop10" />
		<stop
   offset="0.7889"
   style="stop-color:#ACC5D2"
   id="stop11" />
		<stop
   offset="0.9"
   style="stop-color:#A0B7C2"
   id="stop12" />
		<stop
   offset="0.9204"
   style="stop-color:#9AAFBB"
   id="stop13" />
		<stop
   offset="0.947"
   style="stop-color:#8B9DA8"
   id="stop14" />
		<stop
   offset="0.977"
   style="stop-color:#75848E"
   id="stop15" />
		<stop
   offset="1"
   style="stop-color:#626F78"
   id="stop16" />
	</linearGradient>
	<path
   fill="url(#SVGID_1_)"
   d="m 90.107,7.236 -4.993,12.725 c -5.033,-1.37 -10.245,-1.673 -15.309,-0.959 2.819,-4.381 6.068,-9.43 8.921,-13.862 3.828,0.264 7.645,0.962 11.381,2.096 z m -47.588,72.64 1.213,-1.733 c -2.834,-4.145 -4.796,-8.771 -5.819,-13.594 -3.152,4.146 -6.785,8.928 -9.974,13.124 1.419,3.192 3.172,6.256 5.243,9.137 l 2.374,-10.046 z m 10.777,7.936 c -0.877,-0.614 -1.713,-1.265 -2.522,-1.938 l -4.729,6.754 -3.396,-1.519 -1.126,4.764 c 1.262,1.078 2.583,2.109 3.971,3.081 3.03,2.122 6.209,3.869 9.482,5.259 L 54.754,88.778 c -0.491,-0.311 -0.978,-0.631 -1.458,-0.966 z m 46.708,-76.4 -5.029,12.817 c 0.658,0.403 1.311,0.821 1.951,1.271 4.537,3.177 8.159,7.17 10.826,11.636 l 5.189,-0.333 6.15,-7.223 c -3.587,-5.833 -8.396,-11.046 -14.363,-15.223 -1.538,-1.078 -3.116,-2.057 -4.724,-2.945 z m -34.443,82.066 0.202,13.973 c 13.349,2.448 27.263,-0.471 38.53,-8.184 L 92.066,90.705 c -8.154,4.05 -17.594,5.081 -26.505,2.773 z m 58.322,-53.787 -5.977,7.018 -5.992,0.383 c 1.132,4.366 1.479,8.919 1.023,13.436 l 12.291,8.606 c 2.437,-9.801 1.913,-20.049 -1.345,-29.443 z m -65.982,0.863 7.542,-3.013 15.56,10.895 5.409,6.083 47.449,33.224 12.156,18.563 -21.602,-5.075 -47.447,-33.224 -7.565,-3.003 -15.56,-10.896 0.251,-8.117 4.831,0.974 c -1.04,2.554 -0.225,5.574 2.128,7.222 2.732,1.914 6.499,1.25 8.413,-1.483 1.913,-2.733 1.249,-6.5 -1.483,-8.413 -2.354,-1.647 -5.47,-1.38 -7.514,0.47 z m 20.565,11.077 c -2.732,-1.914 -6.5,-1.25 -8.413,1.483 -1.914,2.732 -1.25,6.499 1.484,8.412 2.732,1.914 6.499,1.25 8.413,-1.483 1.913,-2.732 1.248,-6.499 -1.484,-8.412 z M 52.977,32.486 56.151,37.685 72.779,31.042 55.274,28.914 Z M 44.852,44.127 42.271,47.523 50.246,63.224 50.8,45.327 Z M 55.08,42.63 49.019,32.702 66.347,5.775 C 64.541,6.087 62.75,6.488 60.985,6.988 l -13.626,21.585 -5.304,-1.34 -2.125,4.788 -3.773,3.635 3.074,4.525 -15.623,20.187 c 0.133,1.83 0.368,3.65 0.694,5.454 L 43.678,40.33 Z M 15.297,9.106 14.157,5.742 6.587,8.674 6.42,16.791 9.971,16.712 Z"
   id="path16"
   style="fill:url(#SVGID_1_)" />
	<path
   fill="#626f78"
   d="m 66.135,46.929 c 1.275,0.894 1.585,2.651 0.692,3.926 -0.893,1.276 -2.651,1.586 -3.926,0.693 -1.275,-0.894 -1.585,-2.651 -0.692,-3.927 0.893,-1.276 2.65,-1.585 3.926,-0.692 z M 13.173,17.99 l 20.948,14.668 0.2,0.294 2.921,-2.813 1.645,-3.706 -0.344,-0.088 -20.95,-14.668 z m 59.519,36.972 c -0.893,1.275 -0.583,3.033 0.692,3.926 1.275,0.893 3.033,0.583 3.926,-0.692 0.893,-1.275 0.583,-3.033 -0.692,-3.926 -1.275,-0.893 -3.033,-0.583 -3.926,0.692 z"
   id="path17" />
</g>
</svg>

<?xml version="1.0" encoding="utf-8"?>
<!-- Generator: Adobe Illustrator 15.1.0, SVG Export Plug-In . SVG Version: 6.00 Build 0)  -->
<!DOCTYPE svg PUBLIC "-//W3C//DTD SVG 1.1//EN" "http://www.w3.org/Graphics/SVG/1.1/DTD/svg11.dtd">
<svg version="1.1"
	 id="Layer_1" xmlns:rdf="http://www.w3.org/1999/02/22-rdf-syntax-ns#" xmlns:cc="http://creativecommons.org/ns#" xmlns:dc="http://purl.org/dc/elements/1.1/" xmlns:svg="http://www.w3.org/2000/svg"
	 xmlns="http://www.w3.org/2000/svg" xmlns:xlink="http://www.w3.org/1999/xlink" x="0px" y="0px" width="156px" height="116px"
	 viewBox="0 0 156 116" enable-background="new 0 0 156 116" xml:space="preserve">
<g>
	<path fill="#010101" d="M62.439,24.478L77.11,1.705c5.831,0.209,11.666,1.344,17.276,3.45l-7.427,19.02
		C78.932,21.234,70.193,21.436,62.439,24.478z M43.633,83.902l4.199-5.997c-4.962-6.358-7.479-14.208-7.294-22.1L24.159,77.33
		c2.459,6.071,6.021,11.746,10.627,16.701l3.01-12.737L43.633,83.902z M55.266,84.958c-1.785-1.25-3.408-2.645-4.881-4.146
		l-5.454,7.79l-4.522-2.023l-2.462,10.591c1.75,1.601,3.622,3.106,5.617,4.503c4.632,3.243,9.589,5.672,14.703,7.317l-0.33-22.344
		C57.031,86.126,56.138,85.568,55.266,84.958z M98.358,6.83l-7.493,19.061c1.386,0.713,2.742,1.519,4.054,2.437
		c4.646,3.253,8.236,7.444,10.716,12.136l8.874-0.532l8.584-10.102c-3.917-7.023-9.44-13.294-16.47-18.216
		C103.965,9.752,101.199,8.161,98.358,6.83z M62.286,88.746l0.308,21.439c16.467,3.839,34.03-0.13,47.271-10.951L92.059,86.767
		C83.063,91.824,72.085,92.665,62.286,88.746z M107.313,44.122c2.18,5.624,2.863,11.76,1.947,17.764l17.869,12.512
		c4.623-13.525,3.709-28.226-2.181-40.928l-8.61,10.111L107.313,44.122z M53.075,75.91l0.559-18.015l14.229,9.963l7.565,3.004
		l47.647,33.363l30.055,7.061l-16.914-25.827L88.569,52.096l-5.409-6.082L68.93,36.05l16.737-6.687l-28.444-3.456L72.786,1.726
		c-4.681,0.2-9.321,0.993-13.801,2.362L45.883,24.877l-5.672-1.432l-0.305-0.078L18.437,8.335l-2.309-6.812L3.409,6.449
		L3.131,20.087l7.19-0.16l21.468,15.032l0.177,0.261l3.286,4.839l-15.048,19.49c0.25,4.655,1.09,9.262,2.496,13.707l17.399-22.893
		L53.075,75.91z"/>
	<linearGradient id="SVGID_1_" gradientUnits="userSpaceOnUse" x1="43.0308" y1="97.1416" x2="109.4144" y2="18.0287">
		<stop  offset="0" style="stop-color:#626F78"/>
		<stop  offset="0.0061" style="stop-color:#69767F"/>
		<stop  offset="0.03" style="stop-color:#7E8E99"/>
		<stop  offset="0.0539" style="stop-color:#90A3AE"/>
		<stop  offset="0.0773" style="stop-color:#9BB1BD"/>
		<stop  offset="0.1" style="stop-color:#A0B7C2"/>
		<stop  offset="0.2111" style="stop-color:#ACC5D2"/>
		<stop  offset="0.3397" style="stop-color:#B5CEDD"/>
		<stop  offset="0.5" style="stop-color:#B7D1E1"/>
		<stop  offset="0.6603" style="stop-color:#B5CEDD"/>
		<stop  offset="0.7889" style="stop-color:#ACC5D2"/>
		<stop  offset="0.9" style="stop-color:#A0B7C2"/>
		<stop  offset="0.9204" style="stop-color:#9AAFBB"/>
		<stop  offset="0.947" style="stop-color:#8B9DA8"/>
		<stop  offset="0.977" style="stop-color:#75848E"/>
		<stop  offset="1" style="stop-color:#626F78"/>
	</linearGradient>
	<path fill="url(#SVGID_1_)" d="M90.107,7.236l-4.993,12.725c-5.033-1.37-10.245-1.673-15.309-0.959
		c2.819-4.381,6.068-9.43,8.921-13.862C82.554,5.404,86.371,6.102,90.107,7.236z M42.519,79.876l1.213-1.733
		c-2.834-4.145-4.796-8.771-5.819-13.594c-3.152,4.146-6.785,8.928-9.974,13.124c1.419,3.192,3.172,6.256,5.243,9.137l2.374-10.046
		L42.519,79.876z M53.296,87.812c-0.877-0.614-1.713-1.265-2.522-1.938l-4.729,6.754l-3.396-1.519l-1.126,4.764
		c1.262,1.078,2.583,2.109,3.971,3.081c3.03,2.122,6.209,3.869,9.482,5.259l-0.222-15.435
		C54.263,88.467,53.776,88.147,53.296,87.812z M100.004,11.412l-5.029,12.817c0.658,0.403,1.311,0.821,1.951,1.271
		c4.537,3.177,8.159,7.17,10.826,11.636l5.189-0.333l6.15-7.223c-3.587-5.833-8.396-11.046-14.363-15.223
		C103.19,13.279,101.612,12.3,100.004,11.412z M65.561,93.478l0.202,13.973c13.349,2.448,27.263-0.471,38.53-8.184l-12.227-8.562
		C83.912,94.755,74.472,95.786,65.561,93.478z M123.883,39.691l-5.977,7.018l-5.992,0.383c1.132,4.366,1.479,8.919,1.023,13.436
		l12.291,8.606C127.665,59.333,127.141,49.085,123.883,39.691z M57.901,40.554l7.542-3.013l15.56,10.895l5.409,6.083l47.449,33.224
		l12.156,18.563l-21.602-5.075L76.968,68.007l-7.565-3.003l-15.56-10.896l0.251-8.117l4.831,0.974
		c-1.04,2.554-0.225,5.574,2.128,7.222c2.732,1.914,6.499,1.25,8.413-1.483c1.913-2.733,1.249-6.5-1.483-8.413
		c-2.354-1.647-5.47-1.38-7.514,0.47L57.901,40.554z M78.466,51.631c-2.732-1.914-6.5-1.25-8.413,1.483
		c-1.914,2.732-1.25,6.499,1.484,8.412c2.732,1.914,6.499,1.25,8.413-1.483C81.863,57.311,81.198,53.544,78.466,51.631z
		 M52.977,32.486l3.174,5.199l16.628-6.643l-17.505-2.128L52.977,32.486z M44.852,44.127l-2.581,3.396l7.975,15.701L50.8,45.327
		L44.852,44.127z M55.08,42.63l-6.061-9.928L66.347,5.775c-1.806,0.312-3.597,0.713-5.362,1.213L47.359,28.573l-5.304-1.34
		l-2.125,4.788l-3.773,3.635l3.074,4.525L23.608,60.368c0.133,1.83,0.368,3.65,0.694,5.454L43.678,40.33L55.08,42.63z M15.297,9.106
		l-1.14-3.364l-7.57,2.932L6.42,16.791l3.551-0.079L15.297,9.106z"/>
	<path fill="#626F78" d="M66.135,46.929c1.275,0.894,1.585,2.651,0.692,3.926c-0.893,1.276-2.651,1.586-3.926,0.693
		c-1.275-0.894-1.585-2.651-0.692-3.927S64.859,46.036,66.135,46.929z M13.173,17.99l20.948,14.668l0.2,0.294l2.921-2.813
		l1.645-3.706l-0.344-0.088L17.593,11.677L13.173,17.99z M72.692,54.962c-0.893,1.275-0.583,3.033,0.692,3.926
		s3.033,0.583,3.926-0.692s0.583-3.033-0.692-3.926S73.585,53.687,72.692,54.962z"/>
</g>
</svg>
